build/img/icons/icon-logo.svg

<svg width="121" height="14" viewBox="0 0 121 14" fill="none" xmlns="http://www.w3.org/2000/svg">
<path d="M0.702 10.39C3.99 10.57 6.216 10.66 7.38 10.66C7.656 10.66 7.872 10.582 8.028 10.426C8.196 10.258 8.28 10.036 8.28 9.76V8.14H4.14C2.88 8.14 1.962 7.858 1.386 7.294C0.822 6.718 0.54 5.8 0.54 4.54V4C0.54 2.74 0.822 1.828 1.386 1.264C1.962 0.687999 2.88 0.399999 4.14 0.399999H10.458V2.92H4.86C4.14 2.92 3.78 3.28 3.78 4V4.36C3.78 5.08 4.14 5.44 4.86 5.44H8.1C9.276 5.44 10.14 5.716 10.692 6.268C11.244 6.82 11.52 7.684 11.52 8.86V9.76C11.52 10.936 11.244 11.8 10.692 12.352C10.14 12.904 9.276 13.18 8.1 13.18C7.488 13.18 6.84 13.168 6.156 13.144L4.5 13.072C3.276 13.012 2.01 12.928 0.702 12.82V10.39ZM18.3621 13H15.1221V2.92H11.3421V0.399999H22.1421V2.92H18.3621V13ZM33.3942 13H23.4042V0.399999H33.3942V2.92H26.6442V5.35H31.9542V7.87H26.6442V10.48H33.3942V13ZM44.82 13H34.83V0.399999H44.82V2.92H38.07V5.35H43.38V7.87H38.07V10.48H44.82V13ZM49.4958 10.48H56.0658V13H46.2558V0.399999H49.4958V10.48ZM62.7265 0.399999H69.9265C71.1025 0.399999 71.9665 0.669999 72.5185 1.21C73.0705 1.738 73.3465 2.548 73.3465 3.64C73.3465 4.36 73.1905 4.948 72.8785 5.404C72.5665 5.848 72.1825 6.16 71.7265 6.34C72.6985 6.604 73.3585 7.252 73.7065 8.284C73.8265 8.656 73.8865 9.088 73.8865 9.58C73.8865 10.756 73.6105 11.62 73.0585 12.172C72.5065 12.724 71.6425 13 70.4665 13H62.7265V0.399999ZM70.6465 9.04C70.6465 8.32 70.2865 7.96 69.5665 7.96H65.9665V10.48H69.5665C70.2865 10.48 70.6465 10.12 70.6465 9.4V9.04ZM70.1065 4C70.1065 3.28 69.7465 2.92 69.0265 2.92H65.9665V5.44H69.0265C69.7465 5.44 70.1065 5.08 70.1065 4.36V4ZM77.7558 13H74.2458L79.0158 0.399999H82.6158L87.3858 13H83.8758L83.0658 10.75H78.5658L77.7558 13ZM79.3758 8.41H82.2558L80.8158 4.18L79.3758 8.41ZM91.5251 10.48H98.0951V13H88.2851V0.399999H91.5251V10.48ZM102.599 10.48H109.169V13H99.3593V0.399999H102.599V10.48ZM110.056 10.39C113.344 10.57 115.57 10.66 116.734 10.66C117.01 10.66 117.226 10.582 117.382 10.426C117.55 10.258 117.634 10.036 117.634 9.76V8.14H113.494C112.234 8.14 111.316 7.858 110.74 7.294C110.176 6.718 109.894 5.8 109.894 4.54V4C109.894 2.74 110.176 1.828 110.74 1.264C111.316 0.687999 112.234 0.399999 113.494 0.399999H119.812V2.92H114.214C113.494 2.92 113.134 3.28 113.134 4V4.36C113.134 5.08 113.494 5.44 114.214 5.44H117.454C118.63 5.44 119.494 5.716 120.046 6.268C120.598 6.82 120.874 7.684 120.874 8.86V9.76C120.874 10.936 120.598 11.8 120.046 12.352C119.494 12.904 118.63 13.18 117.454 13.18C116.842 13.18 116.194 13.168 115.51 13.144L113.854 13.072C112.63 13.012 111.364 12.928 110.056 12.82V10.39Z" fill="#E7E7E7"/>
</svg>

<svg width="121" height="14" fill="none" xmlns="http://www.w3.org/2000/svg"><path d="M.702 10.39c3.288.18 5.514.27 6.678.27.276 0 .492-.078.648-.234.168-.168.252-.39.252-.666V8.14H4.14c-1.26 0-2.178-.282-2.754-.846C.822 6.718.54 5.8.54 4.54V4c0-1.26.282-2.172.846-2.736C1.962.688 2.88.4 4.14.4h6.318v2.52H4.86c-.72 0-1.08.36-1.08 1.08v.36c0 .72.36 1.08 1.08 1.08H8.1c1.176 0 2.04.276 2.592.828.552.552.828 1.416.828 2.592v.9c0 1.176-.276 2.04-.828 2.592-.552.552-1.416.828-2.592.828-.612 0-1.26-.012-1.944-.036L4.5 13.072c-1.224-.06-2.49-.144-3.798-.252v-2.43zM18.362 13h-3.24V2.92h-3.78V.4h10.8v2.52h-3.78V13zm15.032 0h-9.99V.4h9.99v2.52h-6.75v2.43h5.31v2.52h-5.31v2.61h6.75V13zm11.426 0h-9.99V.4h9.99v2.52h-6.75v2.43h5.31v2.52h-5.31v2.61h6.75V13zm4.676-2.52h6.57V13h-9.81V.4h3.24v10.08zM62.726.4h7.2c1.177 0 2.04.27 2.593.81.551.528.828 1.338.828 2.43 0 .72-.156 1.308-.468 1.764-.313.444-.697.756-1.153.936.972.264 1.633.912 1.98 1.944.12.372.18.804.18 1.296 0 1.176-.275 2.04-.828 2.592-.552.552-1.416.828-2.592.828h-7.74V.4zm7.92 8.64c0-.72-.36-1.08-1.08-1.08h-3.6v2.52h3.6c.72 0 1.08-.36 1.08-1.08v-.36zM70.106 4c0-.72-.36-1.08-1.08-1.08h-3.06v2.52h3.06c.72 0 1.08-.36 1.08-1.08V4zm7.65 9h-3.51L79.016.4h3.6l4.77 12.6h-3.51l-.81-2.25h-4.5l-.81 2.25zm1.62-4.59h2.88l-1.44-4.23-1.44 4.23zm12.15 2.07h6.57V13h-9.81V.4h3.24v10.08zm11.073 0h6.57V13h-9.81V.4h3.24v10.08zm7.457-.09c3.288.18 5.514.27 6.678.27.276 0 .492-.078.648-.234.168-.168.252-.39.252-.666V8.14h-4.14c-1.26 0-2.178-.282-2.754-.846-.564-.576-.846-1.494-.846-2.754V4c0-1.26.282-2.172.846-2.736.576-.576 1.494-.864 2.754-.864h6.318v2.52h-5.598c-.72 0-1.08.36-1.08 1.08v.36c0 .72.36 1.08 1.08 1.08h3.24c1.176 0 2.04.276 2.592.828.552.552.828 1.416.828 2.592v.9c0 1.176-.276 2.04-.828 2.592-.552.552-1.416.828-2.592.828-.612 0-1.26-.012-1.944-.036l-1.656-.072c-1.224-.06-2.49-.144-3.798-.252v-2.43z" fill="#E7E7E7"/></svg>
